src/assets/svg/push_products.svg

<svg width="116" height="32" viewBox="0 0 116 32" fill="none" xmlns="http://www.w3.org/2000/svg">
<g filter="url(#filter0_d_4449_43505)">
<path d="M37.2793 10.928H39.3673L39.4633 10.328L38.5513 9.416H43.4233L43.2073 10.928H46.1353L45.8233 13.208H42.8953L42.6073 15.128H44.9833L44.6713 17.408H42.2953L42.0313 19.328H44.4073L44.0713 21.608H41.6953L41.4313 23.528H44.3833L44.0713 25.784H35.1913L35.1433 26.168H31.3993L33.2473 12.968L32.4793 13.208L32.8633 10.472L37.5673 8.936L37.2793 10.928ZM27.2953 12.032L27.6313 9.68L27.0312 8.984H31.7593L31.3273 12.032H32.1193L31.8313 14.168H31.0153L30.6553 16.76L31.2793 16.568L30.9193 19.064L30.3193 19.256L29.5753 24.608C29.4953 25.072 29.2793 25.456 28.9273 25.76C28.5753 26.048 28.1753 26.192 27.7273 26.192H24.0072L25.6152 24.032L26.0953 20.576L24.7273 21.008L25.0873 18.488L26.4313 18.08L26.9833 14.168H25.7113L25.9993 12.032H27.2953ZM35.5033 23.528H37.6153L37.8793 21.608H35.7673L35.5033 23.528ZM36.1033 19.328H38.1913L38.4553 17.408H36.3672L36.1033 19.328ZM36.6793 15.128H38.7913L39.0553 13.208H36.9673L36.6793 15.128ZM56.5254 13.688H66.9174L66.5814 15.968H54.8214L53.1894 18.152L52.0614 26.168H47.6454L48.4614 20.312H46.6374L49.9014 15.968H47.9094L48.2454 13.688H51.6294L52.0614 13.112H56.9574L56.5254 13.688ZM57.9654 20.384L58.0134 20.096L61.1814 18.608H55.2534L55.5414 16.592H66.0774L65.7174 19.064L62.6454 20.384H66.6534L66.3654 22.544H62.0214L61.7334 24.608C61.6694 25.056 61.4534 25.432 61.0854 25.736C60.7334 26.024 60.3254 26.168 59.8614 26.168H55.3494L57.4614 24.008L57.6534 22.544H53.5974L53.8854 20.384H57.9654ZM51.6294 12.032H48.2214L48.5094 9.968H51.9174L51.9414 9.848L51.1734 8.936H56.1894L56.0454 9.968H60.1494L60.1734 9.848L59.4054 8.936H64.4214L64.2774 9.968H67.6614L67.3734 12.032H63.9654L63.8934 12.584H59.7894L59.8614 12.032H55.7334L55.6614 12.584H51.5574L51.6294 12.032ZM88.8275 14.648L88.5155 16.928H81.6755L81.3875 18.968H87.3155L86.9795 21.248H81.0515L80.7635 23.312H88.5155L88.1795 25.808H77.4755L72.9875 24.536L72.6755 25.808H68.5715L70.3475 18.872L69.8435 18.056H74.6675L73.6355 22.016L76.2755 22.76L77.1155 16.928H70.2755L70.5875 14.648H88.8275ZM84.5555 12.584H75.4355L75.2435 13.952H70.2275L70.7315 10.304H78.0275L78.0995 9.824L77.3075 8.936H82.7795L82.5875 10.304H89.8835L89.3795 13.952H84.3635L84.5555 12.584ZM98.2096 24.44L99.2896 23.096L99.6736 20.336H98.7376L97.9216 26.216H94.2736L95.0896 20.336H94.2016L93.6256 24.44H90.8896L91.7776 18.056H95.4256L95.5456 17.144H91.4656L91.7776 14.864H95.8816L96.0736 13.496H94.8016L94.5856 14.408H91.8496L92.8816 10.304H95.6176L95.3776 11.216H96.3856L96.5776 9.848L95.8096 8.936H100.37L100.034 11.216H103.466L103.154 13.496H99.7216L99.5296 14.864H103.634L103.322 17.144H99.1936L99.0736 18.056H102.722L101.978 23.456C101.93 23.728 101.794 23.96 101.57 24.152C101.362 24.344 101.122 24.44 100.85 24.44H98.2096ZM103.922 25.808L106.058 23.528L107.954 10.064L107.378 9.392H111.698L109.61 24.176C109.546 24.64 109.338 25.032 108.986 25.352C108.634 25.656 108.226 25.808 107.762 25.808H103.922ZM107.09 11.216L105.362 23.528H102.866L104.594 11.216H107.09Z" fill="white"/>
</g>
<path fill-rule="evenodd" clip-rule="evenodd" d="M32 16C32 24.8366 24.8366 32 16 32C7.16344 32 0 24.8366 0 16C0 7.16344 7.16344 0 16 0C24.8366 0 32 16 32 16Z" fill="url(#paint0_linear_4449_43505)"/>
<defs>
<filter id="filter0_d_4449_43505" x="24.0073" y="8.93555" width="91.6904" height="21.2803" filterUnits="userSpaceOnUse" color-interpolation-filters="sRGB">
<feFlood flood-opacity="0" result="BackgroundImageFix"/>
<feColorMatrix in="SourceAlpha" type="matrix" values="0 0 0 0 0 0 0 0 0 0 0 0 0 0 0 0 0 0 127 0" result="hardAlpha"/>
<feOffset dx="4" dy="4"/>
<feColorMatrix type="matrix" values="0 0 0 0 0.654902 0 0 0 0 0.960784 0 0 0 0 0.133333 0 0 0 0.2 0"/>
<feBlend mode="normal" in2="BackgroundImageFix" result="effect1_dropShadow_4449_43505"/>
<feBlend mode="normal" in="SourceGraphic" in2="effect1_dropShadow_4449_43505" result="shape"/>
</filter>
<linearGradient id="paint0_linear_4449_43505" x1="-17.079" y1="28.5395" x2="8" y2="44.5395" gradientUnits="userSpaceOnUse">
<stop stop-color="#A7F522"/>
<stop offset="1" stop-color="#DCF8A6" stop-opacity="0.01"/>
</linearGradient>
</defs>
</svg>

<svg width="116" height="32" fill="none" xmlns="http://www.w3.org/2000/svg"><g filter="url(#prefix__a)"><path d="M37.28 10.928h2.087l.096-.6-.912-.912h4.872l-.216 1.512h2.928l-.312 2.28h-2.928l-.288 1.92h2.376l-.312 2.28h-2.376l-.264 1.92h2.376l-.336 2.28h-2.376l-.264 1.92h2.952l-.312 2.256h-8.88l-.048.384H31.4l1.848-13.2-.768.24.384-2.736 4.704-1.536zm-9.985 1.104.336-2.352-.6-.696h4.728l-.432 3.048h.792l-.288 2.136h-.816l-.36 2.592.624-.192-.36 2.496-.6.192-.744 5.352q-.12.696-.648 1.152a1.84 1.84 0 0 1-1.2.432h-3.72l1.608-2.16.48-3.456-1.368.432.36-2.52 1.344-.408.552-3.912h-1.272L26 12.032zm8.208 11.496h2.112l.264-1.92h-2.112zm.6-4.2h2.088l.264-1.92h-2.088zm.576-4.2h2.112l.264-1.92h-2.088zm19.846-1.44h10.392l-.336 2.28h-11.76l-1.632 2.184-1.128 8.016h-4.416l.816-5.856h-1.824l3.264-4.344H47.91l.336-2.28h3.384l.432-.576h4.896zm1.44 6.696.048-.288 3.168-1.488h-5.928l.288-2.016h10.536l-.36 2.472-3.072 1.32h4.008l-.288 2.16h-4.344l-.288 2.064q-.096.672-.648 1.128-.528.432-1.224.432H55.35l2.112-2.16.192-1.464h-4.056l.288-2.16zm-6.336-8.352h-3.408l.288-2.064h3.408l.024-.12-.768-.912h5.016l-.144 1.032h4.104l.024-.12-.768-.912h5.016l-.144 1.032h3.384l-.288 2.064h-3.408l-.072.552H59.79l.072-.552h-4.128l-.072.552h-4.104zm37.199 2.616-.312 2.28h-6.84l-.288 2.04h5.927l-.335 2.28h-5.928l-.289 2.064h7.752l-.335 2.496H77.475l-4.487-1.272-.312 1.272H68.57l1.776-6.936-.503-.816h4.824l-1.033 3.96 2.64.744.84-5.832h-6.84l.313-2.28zm-4.273-2.064h-9.12l-.192 1.368h-5.015l.504-3.648h7.296l.072-.48-.792-.888h5.471l-.191 1.368h7.296l-.505 3.648h-5.016zM98.21 24.44l1.08-1.344.384-2.76h-.936l-.816 5.88h-3.648l.816-5.88h-.888l-.576 4.104H90.89l.888-6.384h3.648l.12-.912h-4.08l.312-2.28h4.104l.192-1.368h-1.272l-.216.912H91.85l1.032-4.104h2.736l-.24.912h1.008l.192-1.368-.768-.912h4.56l-.336 2.28h3.432l-.312 2.28h-3.432l-.192 1.368h4.104l-.312 2.28h-4.128l-.12.912h3.648l-.744 5.4a1.16 1.16 0 0 1-.408.696 1.03 1.03 0 0 1-.72.288zm5.712 1.368 2.136-2.28 1.896-13.464-.576-.672h4.32l-2.088 14.784a1.9 1.9 0 0 1-.624 1.176q-.528.456-1.224.456zm3.168-14.592-1.728 12.312h-2.496l1.728-12.312z" fill="#fff"/></g><path fill-rule="evenodd" clip-rule="evenodd" d="M32 16c0 8.837-7.163 16-16 16S0 24.837 0 16 7.163 0 16 0s16 16 16 16" fill="url(#prefix__b)"/><defs><linearGradient id="prefix__b" x1="-17.079" y1="28.54" x2="8" y2="44.539" gradientUnits="userSpaceOnUse"><stop stop-color="#A7F522"/><stop offset="1" stop-color="#DCF8A6" stop-opacity=".01"/></linearGradient><filter id="prefix__a" x="24.007" y="8.936" width="91.69" height="21.28" filterUnits="userSpaceOnUse" color-interpolation-filters="sRGB"><feFlood flood-opacity="0" result="BackgroundImageFix"/><feColorMatrix in="SourceAlpha" values="0 0 0 0 0 0 0 0 0 0 0 0 0 0 0 0 0 0 127 0" result="hardAlpha"/><feOffset dx="4" dy="4"/><feColorMatrix values="0 0 0 0 0.654902 0 0 0 0 0.960784 0 0 0 0 0.133333 0 0 0 0.2 0"/><feBlend in2="BackgroundImageFix" result="effect1_dropShadow_4449_43505"/><feBlend in="SourceGraphic" in2="effect1_dropShadow_4449_43505" result="shape"/></filter></defs></svg>
